!!!SOCIAL_FUNCTION:	bird dance songs
!!!PDT:	1956
!!!OTL: No_104_Stomp_Dance_Song_(f).krn
!!!LANG: Non-Tone
!!!LING_GROUP: Muskogean
!!!REG: Florida
**kern
*staff1
=1-
=
*clefF4
*k[f#c#g#d#]
*M2/4
8.E\L
16B\Jk
8.B\L
16G#\Jk
=2
8.G#\L
16B\Jk
8.B\L
16A\Jk
=3
(4G#\
4E\)
=4
4.F#\
8E\
=5
8.E\L
16G#\Jk
8.G#\L
16E\Jk
=6
8.E\L
16F#\Jk
8.F#\L
16E\Jk
=7
4E\
8E\
8r
=8
[2E\
=9
8.E\L]
16E\Jk
8.E\L
16E\Jk
=10
8.E\L
16F#\Jk
8.F#\L
16E\Jk
=11
4E\
4E\
=12
(2F#\
=13
8.E\L)
16G#\Jk
8.G#\L
16E\Jk
=14
8.E\L
16F#\Jk
8.F#\L
16E\Jk
=15
4E\
8E\
8r
=16
2E\
==:|!
*-
